src/assets/Imgs/proposal/add-square.svg

<svg fill="none" height="16" viewBox="0 0 16 16" width="16" xmlns="http://www.w3.org/2000/svg"><g stroke="#fff" stroke-linecap="round" stroke-linejoin="round" stroke-width="1.5"><path d="m5.33337 8h5.33333"/><path d="m8 10.6666v-5.33335"/><path d="m6.00004 14.6666h3.99996c3.3334 0 4.6667-1.3333 4.6667-4.66668v-4c0-3.33333-1.3333-4.66667-4.6667-4.66667h-3.99996c-3.33333 0-4.66667 1.33334-4.66667 4.66667v4c0 3.33338 1.33334 4.66668 4.66667 4.66668z"/></g></svg>

<svg width="16" height="16" viewBox="0 0 16 16" fill="none" xmlns="http://www.w3.org/2000/svg">
<g id="vuesax/linear/add-square">
<g id="add-square">
<path id="Vector" d="M5.33337 8H10.6667" stroke="white" stroke-width="1.5" stroke-linecap="round" stroke-linejoin="round"/>
<path id="Vector_2" d="M8 10.6666V5.33325" stroke="white" stroke-width="1.5" stroke-linecap="round" stroke-linejoin="round"/>
<path id="Vector_3" d="M6.00004 14.6666H10C13.3334 14.6666 14.6667 13.3333 14.6667 9.99992V5.99992C14.6667 2.66659 13.3334 1.33325 10 1.33325H6.00004C2.66671 1.33325 1.33337 2.66659 1.33337 5.99992V9.99992C1.33337 13.3333 2.66671 14.6666 6.00004 14.6666Z" stroke="white" stroke-width="1.5" stroke-linecap="round" stroke-linejoin="round"/>
</g>
</g>
</svg>
